assets/icons/qvision/request_page.svg

<svg xmlns="http://www.w3.org/2000/svg" enable-background="new 0 0 24 24" height="24" viewBox="0 0 24 24" width="24"><rect fill="none" height="24" width="24"/><path d="M14,2H6C4.9,2,4,2.9,4,4v16c0,1.1,0.9,2,2,2h12c1.1,0,2-0.9,2-2V8L14,2z M15,11h-4v1h3c0.55,0,1,0.45,1,1v3 c0,0.55-0.45,1-1,1h-1v1h-2v-1H9v-2h4v-1h-3c-0.55,0-1-0.45-1-1v-3c0-0.55,0.45-1,1-1h1V8h2v1h2V11z"/></svg>

<svg width="24" height="24" viewBox="0 0 24 24" fill="none" xmlns="http://www.w3.org/2000/svg">
<g clip-path="url(#clip0_147_4636)">
<path d="M14 2H6C4.9 2 4 2.9 4 4V20C4 21.1 4.9 22 6 22H18C19.1 22 20 21.1 20 20V8L14 2ZM15 11H11V12H14C14.55 12 15 12.45 15 13V16C15 16.55 14.55 17 14 17H13V18H11V17H9V15H13V14H10C9.45 14 9 13.55 9 13V10C9 9.45 9.45 9 10 9H11V8H13V9H15V11Z" fill="#323232"/>
</g>
<defs>
<clipPath id="clip0_147_4636">
<rect width="24" height="24" fill="white"/>
</clipPath>
</defs>
</svg>
